docs/img/icon1/corporate_portal.svg

<svg width="287" height="390" fill="none" xmlns="http://www.w3.org/2000/svg"><path d="M276.86 10.026l.039.044.044.039C282.894 15.379 286 24.39 286 37.44v41.6c0 13.037-3.101 22.434-9.1 28.412-5.286 5.267-14.35 8.028-27.477 8.028h-85.591c-9.25 0-16.503 2.841-21.605 8.635-5.097 5.093-7.577 12.306-7.577 21.485v16.6h114.773c13.1 0 22.146 3.096 27.437 9.026l.039.044.044.039c5.951 5.27 9.057 14.281 9.057 27.331v153.92c0 13.037-3.101 22.434-9.1 28.412-5.286 5.267-14.35 8.028-27.477 8.028H38.577c-13.08 0-22.518-2.742-28.52-8.03C4.751 374.992 2 365.59 2 352.56V157.04c0-52.527 13.87-91.386 41.43-116.785h0C71.74 14.112 109.057 1 155.482 1h93.941c13.1 0 22.146 3.096 27.437 9.026z" fill="#F5F6FF" stroke="#232323" stroke-width="2"/><path d="M56.293 268.5h-4.125l-6.211-8.684v8.684h-3.633v-17.133h3.633v8.297l6.14-8.297h3.868l-6.246 8.227 6.574 8.906zm13.781-6.574c0 1.094-.148 2.062-.445 2.906-.29.844-.715 1.559-1.277 2.145a5.373 5.373 0 01-2.016 1.312c-.781.297-1.664.445-2.648.445-.922 0-1.77-.148-2.544-.445a5.654 5.654 0 01-2.003-1.312c-.563-.586-1-1.301-1.313-2.145-.305-.844-.457-1.812-.457-2.906 0-1.453.258-2.684.773-3.692.516-1.007 1.25-1.773 2.204-2.296.953-.524 2.09-.786 3.41-.786 1.226 0 2.312.262 3.258.786.953.523 1.699 1.289 2.238 2.296.547 1.008.82 2.239.82 3.692zm-9.058 0c0 .859.093 1.582.28 2.168.188.586.481 1.027.88 1.324.398.297.918.445 1.558.445.633 0 1.145-.148 1.535-.445.399-.297.688-.738.868-1.324.187-.586.281-1.309.281-2.168 0-.867-.094-1.586-.281-2.156-.18-.579-.469-1.012-.868-1.301-.398-.289-.917-.434-1.558-.434-.945 0-1.633.324-2.063.973-.421.648-.632 1.621-.632 2.918zm19.3-6.774c1.477 0 2.668.575 3.575 1.723.914 1.148 1.37 2.832 1.37 5.051 0 1.484-.214 2.734-.644 3.75-.43 1.008-1.023 1.769-1.781 2.285-.758.516-1.629.773-2.613.773-.633 0-1.176-.078-1.63-.234a4.185 4.185 0 01-1.16-.621 5.53 5.53 0 01-.831-.82h-.188a10.14 10.14 0 01.188 1.921v5.286h-3.575v-18.868h2.907l.504 1.7h.164c.234-.352.52-.676.855-.973a3.75 3.75 0 011.207-.703c.477-.18 1.027-.27 1.652-.27zm-1.148 2.86c-.625 0-1.121.129-1.488.386-.368.258-.637.645-.809 1.161-.164.515-.254 1.168-.27 1.957v.386c0 .844.079 1.559.235 2.145.164.586.433 1.031.808 1.336.383.305.907.457 1.57.457.548 0 .997-.152 1.349-.457.351-.305.613-.75.785-1.336.18-.594.27-1.317.27-2.168 0-1.281-.2-2.246-.599-2.895-.398-.648-1.015-.972-1.851-.972zm20.953-2.614V268.5h-3.586v-10.418H91.79V268.5h-3.574v-13.102h11.906zm15.656 6.528c0 1.094-.148 2.062-.445 2.906-.289.844-.715 1.559-1.277 2.145a5.378 5.378 0 01-2.016 1.312c-.781.297-1.664.445-2.648.445-.922 0-1.77-.148-2.543-.445a5.649 5.649 0 01-2.004-1.312c-.563-.586-1-1.301-1.313-2.145-.304-.844-.457-1.812-.457-2.906 0-1.453.258-2.684.774-3.692.515-1.007 1.25-1.773 2.203-2.296.953-.524 2.09-.786 3.41-.786 1.227 0 2.312.262 3.258.786.953.523 1.699 1.289 2.238 2.296.547 1.008.82 2.239.82 3.692zm-9.058 0c0 .859.093 1.582.281 2.168.188.586.48 1.027.879 1.324.398.297.918.445 1.559.445.632 0 1.144-.148 1.535-.445.398-.297.687-.738.867-1.324.187-.586.281-1.309.281-2.168 0-.867-.094-1.586-.281-2.156-.18-.579-.469-1.012-.867-1.301-.399-.289-.918-.434-1.559-.434-.945 0-1.633.324-2.062.973-.422.648-.633 1.621-.633 2.918zm19.301-6.774c1.476 0 2.668.575 3.574 1.723.914 1.148 1.371 2.832 1.371 5.051 0 1.484-.215 2.734-.645 3.75-.429 1.008-1.023 1.769-1.781 2.285-.758.516-1.629.773-2.613.773-.633 0-1.176-.078-1.629-.234a4.182 4.182 0 01-1.16-.621 5.483 5.483 0 01-.832-.82h-.188a10.207 10.207 0 01.188 1.921v5.286h-3.575v-18.868h2.907l.504 1.7h.164c.234-.352.519-.676.855-.973a3.747 3.747 0 011.207-.703c.477-.18 1.028-.27 1.653-.27zm-1.149 2.86c-.625 0-1.121.129-1.488.386-.367.258-.637.645-.809 1.161-.164.515-.254 1.168-.269 1.957v.386c0 .844.078 1.559.234 2.145.164.586.434 1.031.809 1.336.382.305.906.457 1.57.457.547 0 .996-.152 1.348-.457.351-.305.613-.75.785-1.336.179-.594.269-1.317.269-2.168 0-1.281-.199-2.246-.597-2.895-.399-.648-1.016-.972-1.852-.972zm14.414-2.883c1.758 0 3.106.383 4.043 1.148.938.766 1.406 1.93 1.406 3.493v8.73h-2.496l-.691-1.781h-.094a6.652 6.652 0 01-1.148 1.148 3.93 3.93 0 01-1.348.656c-.508.141-1.125.211-1.852.211-.773 0-1.468-.148-2.085-.445a3.315 3.315 0 01-1.442-1.359c-.351-.618-.527-1.399-.527-2.344 0-1.391.488-2.414 1.465-3.07.976-.664 2.441-1.032 4.394-1.102l2.274-.07v-.574c0-.688-.18-1.192-.539-1.512-.36-.32-.86-.481-1.5-.481-.633 0-1.254.09-1.864.27-.609.18-1.219.406-1.828.68l-1.183-2.415a10.157 10.157 0 012.332-.867 11.303 11.303 0 012.683-.316zm1.899 7.301l-1.383.047c-1.156.031-1.961.238-2.414.621-.446.382-.668.886-.668 1.511 0 .547.16.938.48 1.172.321.227.739.34 1.254.34.766 0 1.41-.226 1.934-.68.531-.453.797-1.097.797-1.933v-1.078zm18.082-4.348h-4.289V268.5h-3.575v-10.418h-4.3v-2.684h12.164v2.684zm5.906-2.684v5.18c0 .266-.012.602-.035 1.008-.016.398-.039.805-.071 1.219-.031.414-.062.785-.093 1.113-.032.328-.055.551-.071.668l6.047-9.188h4.301V268.5h-3.457v-5.227c0-.429.016-.902.047-1.418.031-.523.066-1.015.105-1.476.039-.461.067-.809.082-1.043l-6.023 9.164h-4.289v-13.102h3.457zm25.453 3.434c0 .703-.223 1.305-.668 1.805-.437.492-1.086.808-1.945.949v.094c.906.109 1.636.425 2.191.949.555.516.832 1.168.832 1.957 0 .75-.195 1.422-.586 2.016-.39.586-1.011 1.05-1.863 1.394-.852.336-1.965.504-3.34.504h-6.234v-13.102h6.234c1.024 0 1.942.11 2.754.329.812.211 1.453.566 1.922 1.066.469.5.703 1.18.703 2.039zm-3.293 5.566c0-.515-.203-.886-.609-1.113-.399-.234-.993-.351-1.782-.351h-2.355v3.093h2.426c.672 0 1.226-.125 1.664-.375.437-.25.656-.668.656-1.254zm-.328-5.285c0-.406-.16-.707-.481-.902-.32-.195-.793-.293-1.418-.293h-2.519v2.59h2.109c.758 0 1.332-.11 1.723-.328.391-.219.586-.575.586-1.067zm10.676-3.715v5.04h4.992v-5.04h3.574V268.5h-3.574v-5.402h-4.992v5.402h-3.575v-13.102h3.575zm12.316 13.102v-13.102h3.574v5.063h1.723c1.336 0 2.437.141 3.305.422.875.281 1.523.711 1.945 1.289.422.57.633 1.289.633 2.156 0 .844-.196 1.578-.586 2.203-.391.625-1.008 1.11-1.852 1.453-.843.344-1.949.516-3.316.516h-5.426zm3.574-2.473h1.653c.695 0 1.265-.125 1.711-.375.445-.257.668-.683.668-1.277 0-.508-.204-.875-.61-1.102-.406-.226-1.012-.339-1.816-.339h-1.606v3.093zm9.504 2.473v-13.102h3.574V268.5h-3.574zm10.793-13.102v5.18c0 .266-.012.602-.035 1.008-.016.398-.039.805-.07 1.219-.032.414-.063.785-.094 1.113-.031.328-.055.551-.07.668l6.047-9.188h4.3V268.5h-3.457v-5.227c0-.429.016-.902.047-1.418.031-.523.067-1.015.106-1.476.039-.461.066-.809.082-1.043l-6.024 9.164h-4.289v-13.102h3.457zm9.094-5.636c-.086.828-.32 1.558-.703 2.191-.383.633-.981 1.125-1.793 1.477-.813.351-1.906.527-3.281.527-1.414 0-2.516-.168-3.305-.504-.789-.344-1.352-.828-1.688-1.453-.336-.633-.539-1.379-.609-2.238h3.199c.071.883.293 1.468.668 1.758.375.281.977.421 1.805.421.687 0 1.25-.156 1.687-.468.438-.313.7-.883.786-1.711h3.234zm-130.676 38.636V301.5h-3.586v-10.418h-4.746V301.5h-3.574v-13.102h11.906zm15.656 6.528c0 1.094-.148 2.062-.445 2.906-.289.844-.715 1.559-1.277 2.145a5.378 5.378 0 01-2.016 1.312c-.781.297-1.664.445-2.648.445-.922 0-1.77-.148-2.543-.445a5.649 5.649 0 01-2.004-1.312c-.563-.586-1-1.301-1.313-2.145-.304-.844-.457-1.812-.457-2.906 0-1.453.258-2.684.774-3.692.515-1.007 1.25-1.773 2.203-2.296.953-.524 2.09-.786 3.41-.786 1.227 0 2.313.262 3.258.786.953.523 1.699 1.289 2.238 2.296.547 1.008.82 2.239.82 3.692zm-9.058 0c0 .859.094 1.582.281 2.168.188.586.481 1.027.879 1.324.398.297.918.445 1.559.445.632 0 1.144-.148 1.535-.445.398-.297.687-.738.867-1.324.187-.586.281-1.309.281-2.168 0-.867-.094-1.586-.281-2.156-.18-.579-.469-1.012-.867-1.301-.399-.289-.918-.434-1.559-.434-.945 0-1.633.324-2.062.973-.422.648-.633 1.621-.633 2.918zm19.301-6.774c1.476 0 2.668.575 3.574 1.723.914 1.148 1.371 2.832 1.371 5.051 0 1.484-.215 2.734-.645 3.75-.429 1.008-1.023 1.769-1.781 2.285-.758.516-1.629.773-2.613.773-.633 0-1.176-.078-1.629-.234a4.182 4.182 0 01-1.16-.621 5.483 5.483 0 01-.832-.82h-.188a10.207 10.207 0 01.188 1.921v5.286h-3.574v-18.868h2.906l.504 1.7h.164c.234-.352.519-.676.855-.973a3.747 3.747 0 011.207-.703c.477-.18 1.028-.27 1.653-.27zm-1.149 2.86c-.625 0-1.121.129-1.488.386-.367.258-.637.645-.809 1.161-.164.515-.254 1.168-.269 1.957v.386c0 .844.078 1.559.234 2.145.164.586.434 1.031.809 1.336.383.305.906.457 1.57.457.547 0 .996-.152 1.348-.457.351-.305.613-.75.785-1.336.18-.594.269-1.317.269-2.168 0-1.281-.199-2.246-.597-2.895-.399-.648-1.016-.972-1.852-.972zm19.887.07h-4.289V301.5h-3.574v-10.418h-4.301v-2.684h12.164v2.684zm7.816-2.953c1.758 0 3.106.383 4.043 1.148.938.766 1.407 1.93 1.407 3.493v8.73h-2.497l-.691-1.781h-.094a6.652 6.652 0 01-1.148 1.148 3.93 3.93 0 01-1.348.656c-.508.141-1.125.211-1.851.211-.774 0-1.469-.148-2.086-.445a3.315 3.315 0 01-1.442-1.359c-.351-.618-.527-1.399-.527-2.344 0-1.391.488-2.414 1.465-3.07.976-.664 2.441-1.032 4.394-1.102l2.274-.07v-.574c0-.688-.18-1.192-.539-1.512-.36-.32-.86-.481-1.5-.481-.633 0-1.254.09-1.864.27-.609.18-1.218.406-1.828.68l-1.183-2.415a10.157 10.157 0 012.332-.867 11.303 11.303 0 012.683-.316zm1.899 7.301l-1.383.047c-1.156.031-1.961.238-2.414.621-.445.382-.668.886-.668 1.511 0 .547.16.938.48 1.172.321.227.739.34 1.254.34.766 0 1.41-.226 1.934-.68.531-.453.797-1.097.797-1.933v-1.078zm18.972 6.07h-3.574v-10.418h-3.293c-.164 1.922-.359 3.559-.586 4.91-.226 1.352-.515 2.453-.867 3.305-.351.844-.789 1.461-1.312 1.851-.524.391-1.168.586-1.934.586a6.3 6.3 0 01-1.137-.093 3.95 3.95 0 01-.902-.282V298.5c.172.07.355.129.551.176.195.039.394.058.597.058.227 0 .442-.089.645-.269.203-.18.394-.488.574-.926.18-.445.348-1.059.504-1.84.164-.781.313-1.769.445-2.965.133-1.195.258-2.64.375-4.336h9.914V301.5z" fill="#232323"/></svg>

<svg width="287" height="390" viewBox="0 0 287 390" fill="none" xmlns="http://www.w3.org/2000/svg">
<path d="M276.86 10.0257L276.899 10.0696L276.943 10.1086C282.894 15.3794 286 24.3905 286 37.44V79.04C286 92.0767 282.899 101.474 276.9 107.452C271.614 112.719 262.55 115.48 249.423 115.48H163.832C154.582 115.48 147.329 118.321 142.227 124.115C137.13 129.208 134.65 136.421 134.65 145.6V161.2V162.2H135.65H249.423C262.523 162.2 271.569 165.296 276.86 171.226L276.899 171.27L276.943 171.309C282.894 176.579 286 185.59 286 198.64V352.56C286 365.597 282.899 374.994 276.9 380.972C271.614 386.239 262.55 389 249.423 389H38.5766C25.4969 389 16.0591 386.258 10.0575 380.97C4.75127 374.992 2 365.59 2 352.56V157.04C2 104.513 15.8708 65.6544 43.4295 40.2553L43.4303 40.2547C71.7402 14.1116 109.057 1 155.482 1H249.423C262.523 1 271.569 4.0955 276.86 10.0257Z" fill="#F5F6FF" stroke="#232323" stroke-width="2"/>
<path d="M56.293 268.5H52.168L45.957 259.816V268.5H42.3242V251.367H45.957V259.664L52.0977 251.367H55.9648L49.7188 259.594L56.293 268.5ZM70.0742 261.926C70.0742 263.02 69.9258 263.988 69.6289 264.832C69.3398 265.676 68.9141 266.391 68.3516 266.977C67.7969 267.555 67.125 267.992 66.3359 268.289C65.5547 268.586 64.6719 268.734 63.6875 268.734C62.7656 268.734 61.918 268.586 61.1445 268.289C60.3789 267.992 59.7109 267.555 59.1406 266.977C58.5781 266.391 58.1406 265.676 57.8281 264.832C57.5234 263.988 57.3711 263.02 57.3711 261.926C57.3711 260.473 57.6289 259.242 58.1445 258.234C58.6602 257.227 59.3945 256.461 60.3477 255.938C61.3008 255.414 62.4375 255.152 63.7578 255.152C64.9844 255.152 66.0703 255.414 67.0156 255.938C67.9688 256.461 68.7148 257.227 69.2539 258.234C69.8008 259.242 70.0742 260.473 70.0742 261.926ZM61.0156 261.926C61.0156 262.785 61.1094 263.508 61.2969 264.094C61.4844 264.68 61.7773 265.121 62.1758 265.418C62.5742 265.715 63.0938 265.863 63.7344 265.863C64.3672 265.863 64.8789 265.715 65.2695 265.418C65.668 265.121 65.957 264.68 66.1367 264.094C66.3242 263.508 66.418 262.785 66.418 261.926C66.418 261.059 66.3242 260.34 66.1367 259.77C65.957 259.191 65.668 258.758 65.2695 258.469C64.8711 258.18 64.3516 258.035 63.7109 258.035C62.7656 258.035 62.0781 258.359 61.6484 259.008C61.2266 259.656 61.0156 260.629 61.0156 261.926ZM80.3164 255.152C81.793 255.152 82.9844 255.727 83.8906 256.875C84.8047 258.023 85.2617 259.707 85.2617 261.926C85.2617 263.41 85.0469 264.66 84.6172 265.676C84.1875 266.684 83.5938 267.445 82.8359 267.961C82.0781 268.477 81.207 268.734 80.2227 268.734C79.5898 268.734 79.0469 268.656 78.5938 268.5C78.1406 268.336 77.7539 268.129 77.4336 267.879C77.1133 267.621 76.8359 267.348 76.6016 267.059H76.4141C76.4766 267.371 76.5234 267.691 76.5547 268.02C76.5859 268.348 76.6016 268.668 76.6016 268.98V274.266H73.0273V255.398H75.9336L76.4375 257.098H76.6016C76.8359 256.746 77.1211 256.422 77.457 256.125C77.793 255.828 78.1953 255.594 78.6641 255.422C79.1406 255.242 79.6914 255.152 80.3164 255.152ZM79.168 258.012C78.543 258.012 78.0469 258.141 77.6797 258.398C77.3125 258.656 77.043 259.043 76.8711 259.559C76.707 260.074 76.6172 260.727 76.6016 261.516V261.902C76.6016 262.746 76.6797 263.461 76.8359 264.047C77 264.633 77.2695 265.078 77.6445 265.383C78.0273 265.688 78.5508 265.84 79.2148 265.84C79.7617 265.84 80.2109 265.688 80.5625 265.383C80.9141 265.078 81.1758 264.633 81.3477 264.047C81.5273 263.453 81.6172 262.73 81.6172 261.879C81.6172 260.598 81.418 259.633 81.0195 258.984C80.6211 258.336 80.0039 258.012 79.168 258.012ZM100.121 255.398V268.5H96.5352V258.082H91.7891V268.5H88.2148V255.398H100.121ZM115.777 261.926C115.777 263.02 115.629 263.988 115.332 264.832C115.043 265.676 114.617 266.391 114.055 266.977C113.5 267.555 112.828 267.992 112.039 268.289C111.258 268.586 110.375 268.734 109.391 268.734C108.469 268.734 107.621 268.586 106.848 268.289C106.082 267.992 105.414 267.555 104.844 266.977C104.281 266.391 103.844 265.676 103.531 264.832C103.227 263.988 103.074 263.02 103.074 261.926C103.074 260.473 103.332 259.242 103.848 258.234C104.363 257.227 105.098 256.461 106.051 255.938C107.004 255.414 108.141 255.152 109.461 255.152C110.688 255.152 111.773 255.414 112.719 255.938C113.672 256.461 114.418 257.227 114.957 258.234C115.504 259.242 115.777 260.473 115.777 261.926ZM106.719 261.926C106.719 262.785 106.812 263.508 107 264.094C107.188 264.68 107.48 265.121 107.879 265.418C108.277 265.715 108.797 265.863 109.438 265.863C110.07 265.863 110.582 265.715 110.973 265.418C111.371 265.121 111.66 264.68 111.84 264.094C112.027 263.508 112.121 262.785 112.121 261.926C112.121 261.059 112.027 260.34 111.84 259.77C111.66 259.191 111.371 258.758 110.973 258.469C110.574 258.18 110.055 258.035 109.414 258.035C108.469 258.035 107.781 258.359 107.352 259.008C106.93 259.656 106.719 260.629 106.719 261.926ZM126.02 255.152C127.496 255.152 128.688 255.727 129.594 256.875C130.508 258.023 130.965 259.707 130.965 261.926C130.965 263.41 130.75 264.66 130.32 265.676C129.891 266.684 129.297 267.445 128.539 267.961C127.781 268.477 126.91 268.734 125.926 268.734C125.293 268.734 124.75 268.656 124.297 268.5C123.844 268.336 123.457 268.129 123.137 267.879C122.816 267.621 122.539 267.348 122.305 267.059H122.117C122.18 267.371 122.227 267.691 122.258 268.02C122.289 268.348 122.305 268.668 122.305 268.98V274.266H118.73V255.398H121.637L122.141 257.098H122.305C122.539 256.746 122.824 256.422 123.16 256.125C123.496 255.828 123.898 255.594 124.367 255.422C124.844 255.242 125.395 255.152 126.02 255.152ZM124.871 258.012C124.246 258.012 123.75 258.141 123.383 258.398C123.016 258.656 122.746 259.043 122.574 259.559C122.41 260.074 122.32 260.727 122.305 261.516V261.902C122.305 262.746 122.383 263.461 122.539 264.047C122.703 264.633 122.973 265.078 123.348 265.383C123.73 265.688 124.254 265.84 124.918 265.84C125.465 265.84 125.914 265.688 126.266 265.383C126.617 265.078 126.879 264.633 127.051 264.047C127.23 263.453 127.32 262.73 127.32 261.879C127.32 260.598 127.121 259.633 126.723 258.984C126.324 258.336 125.707 258.012 124.871 258.012ZM139.285 255.129C141.043 255.129 142.391 255.512 143.328 256.277C144.266 257.043 144.734 258.207 144.734 259.77V268.5H142.238L141.547 266.719H141.453C141.078 267.188 140.695 267.57 140.305 267.867C139.914 268.164 139.465 268.383 138.957 268.523C138.449 268.664 137.832 268.734 137.105 268.734C136.332 268.734 135.637 268.586 135.02 268.289C134.41 267.992 133.93 267.539 133.578 266.93C133.227 266.312 133.051 265.531 133.051 264.586C133.051 263.195 133.539 262.172 134.516 261.516C135.492 260.852 136.957 260.484 138.91 260.414L141.184 260.344V259.77C141.184 259.082 141.004 258.578 140.645 258.258C140.285 257.938 139.785 257.777 139.145 257.777C138.512 257.777 137.891 257.867 137.281 258.047C136.672 258.227 136.062 258.453 135.453 258.727L134.27 256.312C134.965 255.945 135.742 255.656 136.602 255.445C137.469 255.234 138.363 255.129 139.285 255.129ZM141.184 262.43L139.801 262.477C138.645 262.508 137.84 262.715 137.387 263.098C136.941 263.48 136.719 263.984 136.719 264.609C136.719 265.156 136.879 265.547 137.199 265.781C137.52 266.008 137.938 266.121 138.453 266.121C139.219 266.121 139.863 265.895 140.387 265.441C140.918 264.988 141.184 264.344 141.184 263.508V262.43ZM159.266 258.082H154.977V268.5H151.402V258.082H147.102V255.398H159.266V258.082ZM165.172 255.398V260.578C165.172 260.844 165.16 261.18 165.137 261.586C165.121 261.984 165.098 262.391 165.066 262.805C165.035 263.219 165.004 263.59 164.973 263.918C164.941 264.246 164.918 264.469 164.902 264.586L170.949 255.398H175.25V268.5H171.793V263.273C171.793 262.844 171.809 262.371 171.84 261.855C171.871 261.332 171.906 260.84 171.945 260.379C171.984 259.918 172.012 259.57 172.027 259.336L166.004 268.5H161.715V255.398H165.172ZM190.625 258.832C190.625 259.535 190.402 260.137 189.957 260.637C189.52 261.129 188.871 261.445 188.012 261.586V261.68C188.918 261.789 189.648 262.105 190.203 262.629C190.758 263.145 191.035 263.797 191.035 264.586C191.035 265.336 190.84 266.008 190.449 266.602C190.059 267.188 189.438 267.652 188.586 267.996C187.734 268.332 186.621 268.5 185.246 268.5H179.012V255.398H185.246C186.27 255.398 187.188 255.508 188 255.727C188.812 255.938 189.453 256.293 189.922 256.793C190.391 257.293 190.625 257.973 190.625 258.832ZM187.332 264.398C187.332 263.883 187.129 263.512 186.723 263.285C186.324 263.051 185.73 262.934 184.941 262.934H182.586V266.027H185.012C185.684 266.027 186.238 265.902 186.676 265.652C187.113 265.402 187.332 264.984 187.332 264.398ZM187.004 259.113C187.004 258.707 186.844 258.406 186.523 258.211C186.203 258.016 185.73 257.918 185.105 257.918H182.586V260.508H184.695C185.453 260.508 186.027 260.398 186.418 260.18C186.809 259.961 187.004 259.605 187.004 259.113ZM197.68 255.398V260.438H202.672V255.398H206.246V268.5H202.672V263.098H197.68V268.5H194.105V255.398H197.68ZM209.996 268.5V255.398H213.57V260.461H215.293C216.629 260.461 217.73 260.602 218.598 260.883C219.473 261.164 220.121 261.594 220.543 262.172C220.965 262.742 221.176 263.461 221.176 264.328C221.176 265.172 220.98 265.906 220.59 266.531C220.199 267.156 219.582 267.641 218.738 267.984C217.895 268.328 216.789 268.5 215.422 268.5H209.996ZM213.57 266.027H215.223C215.918 266.027 216.488 265.902 216.934 265.652C217.379 265.395 217.602 264.969 217.602 264.375C217.602 263.867 217.398 263.5 216.992 263.273C216.586 263.047 215.98 262.934 215.176 262.934H213.57V266.027ZM223.074 268.5V255.398H226.648V268.5H223.074ZM233.867 255.398V260.578C233.867 260.844 233.855 261.18 233.832 261.586C233.816 261.984 233.793 262.391 233.762 262.805C233.73 263.219 233.699 263.59 233.668 263.918C233.637 264.246 233.613 264.469 233.598 264.586L239.645 255.398H243.945V268.5H240.488V263.273C240.488 262.844 240.504 262.371 240.535 261.855C240.566 261.332 240.602 260.84 240.641 260.379C240.68 259.918 240.707 259.57 240.723 259.336L234.699 268.5H230.41V255.398H233.867ZM242.961 249.762C242.875 250.59 242.641 251.32 242.258 251.953C241.875 252.586 241.277 253.078 240.465 253.43C239.652 253.781 238.559 253.957 237.184 253.957C235.77 253.957 234.668 253.789 233.879 253.453C233.09 253.109 232.527 252.625 232.191 252C231.855 251.367 231.652 250.621 231.582 249.762H234.781C234.852 250.645 235.074 251.23 235.449 251.52C235.824 251.801 236.426 251.941 237.254 251.941C237.941 251.941 238.504 251.785 238.941 251.473C239.379 251.16 239.641 250.59 239.727 249.762H242.961ZM112.285 288.398V301.5H108.699V291.082H103.953V301.5H100.379V288.398H112.285ZM127.941 294.926C127.941 296.02 127.793 296.988 127.496 297.832C127.207 298.676 126.781 299.391 126.219 299.977C125.664 300.555 124.992 300.992 124.203 301.289C123.422 301.586 122.539 301.734 121.555 301.734C120.633 301.734 119.785 301.586 119.012 301.289C118.246 300.992 117.578 300.555 117.008 299.977C116.445 299.391 116.008 298.676 115.695 297.832C115.391 296.988 115.238 296.02 115.238 294.926C115.238 293.473 115.496 292.242 116.012 291.234C116.527 290.227 117.262 289.461 118.215 288.938C119.168 288.414 120.305 288.152 121.625 288.152C122.852 288.152 123.938 288.414 124.883 288.938C125.836 289.461 126.582 290.227 127.121 291.234C127.668 292.242 127.941 293.473 127.941 294.926ZM118.883 294.926C118.883 295.785 118.977 296.508 119.164 297.094C119.352 297.68 119.645 298.121 120.043 298.418C120.441 298.715 120.961 298.863 121.602 298.863C122.234 298.863 122.746 298.715 123.137 298.418C123.535 298.121 123.824 297.68 124.004 297.094C124.191 296.508 124.285 295.785 124.285 294.926C124.285 294.059 124.191 293.34 124.004 292.77C123.824 292.191 123.535 291.758 123.137 291.469C122.738 291.18 122.219 291.035 121.578 291.035C120.633 291.035 119.945 291.359 119.516 292.008C119.094 292.656 118.883 293.629 118.883 294.926ZM138.184 288.152C139.66 288.152 140.852 288.727 141.758 289.875C142.672 291.023 143.129 292.707 143.129 294.926C143.129 296.41 142.914 297.66 142.484 298.676C142.055 299.684 141.461 300.445 140.703 300.961C139.945 301.477 139.074 301.734 138.09 301.734C137.457 301.734 136.914 301.656 136.461 301.5C136.008 301.336 135.621 301.129 135.301 300.879C134.98 300.621 134.703 300.348 134.469 300.059H134.281C134.344 300.371 134.391 300.691 134.422 301.02C134.453 301.348 134.469 301.668 134.469 301.98V307.266H130.895V288.398H133.801L134.305 290.098H134.469C134.703 289.746 134.988 289.422 135.324 289.125C135.66 288.828 136.062 288.594 136.531 288.422C137.008 288.242 137.559 288.152 138.184 288.152ZM137.035 291.012C136.41 291.012 135.914 291.141 135.547 291.398C135.18 291.656 134.91 292.043 134.738 292.559C134.574 293.074 134.484 293.727 134.469 294.516V294.902C134.469 295.746 134.547 296.461 134.703 297.047C134.867 297.633 135.137 298.078 135.512 298.383C135.895 298.688 136.418 298.84 137.082 298.84C137.629 298.84 138.078 298.688 138.43 298.383C138.781 298.078 139.043 297.633 139.215 297.047C139.395 296.453 139.484 295.73 139.484 294.879C139.484 293.598 139.285 292.633 138.887 291.984C138.488 291.336 137.871 291.012 137.035 291.012ZM156.922 291.082H152.633V301.5H149.059V291.082H144.758V288.398H156.922V291.082ZM164.738 288.129C166.496 288.129 167.844 288.512 168.781 289.277C169.719 290.043 170.188 291.207 170.188 292.77V301.5H167.691L167 299.719H166.906C166.531 300.188 166.148 300.57 165.758 300.867C165.367 301.164 164.918 301.383 164.41 301.523C163.902 301.664 163.285 301.734 162.559 301.734C161.785 301.734 161.09 301.586 160.473 301.289C159.863 300.992 159.383 300.539 159.031 299.93C158.68 299.312 158.504 298.531 158.504 297.586C158.504 296.195 158.992 295.172 159.969 294.516C160.945 293.852 162.41 293.484 164.363 293.414L166.637 293.344V292.77C166.637 292.082 166.457 291.578 166.098 291.258C165.738 290.938 165.238 290.777 164.598 290.777C163.965 290.777 163.344 290.867 162.734 291.047C162.125 291.227 161.516 291.453 160.906 291.727L159.723 289.312C160.418 288.945 161.195 288.656 162.055 288.445C162.922 288.234 163.816 288.129 164.738 288.129ZM166.637 295.43L165.254 295.477C164.098 295.508 163.293 295.715 162.84 296.098C162.395 296.48 162.172 296.984 162.172 297.609C162.172 298.156 162.332 298.547 162.652 298.781C162.973 299.008 163.391 299.121 163.906 299.121C164.672 299.121 165.316 298.895 165.84 298.441C166.371 297.988 166.637 297.344 166.637 296.508V295.43ZM185.609 301.5H182.035V291.082H178.742C178.578 293.004 178.383 294.641 178.156 295.992C177.93 297.344 177.641 298.445 177.289 299.297C176.938 300.141 176.5 300.758 175.977 301.148C175.453 301.539 174.809 301.734 174.043 301.734C173.621 301.734 173.242 301.703 172.906 301.641C172.578 301.578 172.277 301.484 172.004 301.359V298.5C172.176 298.57 172.359 298.629 172.555 298.676C172.75 298.715 172.949 298.734 173.152 298.734C173.379 298.734 173.594 298.645 173.797 298.465C174 298.285 174.191 297.977 174.371 297.539C174.551 297.094 174.719 296.48 174.875 295.699C175.039 294.918 175.188 293.93 175.32 292.734C175.453 291.539 175.578 290.094 175.695 288.398H185.609V301.5Z" fill="#232323"/>
</svg>
